icons/modern/nose-medium.svg

<svg width="32" height="32" viewBox="0 0 32 32" fill="none" xmlns="http://www.w3.org/2000/svg">
<g filter="url(#filter0_i_20020_4951)">
<path d="M13.0147 6.89912C13.3129 5.56867 14.4939 4.62299 15.8574 4.62299C17.2208 4.62299 18.4019 5.56867 18.7 6.89912L20.6308 15.6699C20.8574 16.4902 21.6482 17.0426 22.4667 17.0995C24.5995 17.248 26.2734 18.8924 26.2734 20.998C26.2734 23.1036 24.5665 24.8105 22.4609 24.8105C22.4073 24.8105 22.3541 24.8094 22.3011 24.8072C21.3317 24.7672 20.2573 25.0611 19.5464 25.7214C18.5788 26.6202 17.2822 27.1699 15.8574 27.1699C14.4325 27.1699 13.1359 26.6202 12.1683 25.7214C11.4575 25.0611 10.383 24.7672 9.41364 24.8072C9.36066 24.8094 9.30737 24.8105 9.25385 24.8105C7.14825 24.8105 5.44135 23.1036 5.44135 20.998C5.44135 18.8924 7.11517 17.248 9.24799 17.0995C10.0665 17.0426 10.8574 16.4902 11.0839 15.6699L13.0147 6.89912Z" fill="url(#paint0_linear_20020_4951)"/>
</g>
<path d="M13.0147 6.89912C13.3129 5.56867 14.4939 4.62299 15.8574 4.62299C17.2208 4.62299 18.4019 5.56867 18.7 6.89912L20.6308 15.6699C20.8574 16.4902 21.6482 17.0426 22.4667 17.0995C24.5995 17.248 26.2734 18.8924 26.2734 20.998C26.2734 23.1036 24.5665 24.8105 22.4609 24.8105C22.4073 24.8105 22.3541 24.8094 22.3011 24.8072C21.3317 24.7672 20.2573 25.0611 19.5464 25.7214C18.5788 26.6202 17.2822 27.1699 15.8574 27.1699C14.4325 27.1699 13.1359 26.6202 12.1683 25.7214C11.4575 25.0611 10.383 24.7672 9.41364 24.8072C9.36066 24.8094 9.30737 24.8105 9.25385 24.8105C7.14825 24.8105 5.44135 23.1036 5.44135 20.998C5.44135 18.8924 7.11517 17.248 9.24799 17.0995C10.0665 17.0426 10.8574 16.4902 11.0839 15.6699L13.0147 6.89912Z" fill="url(#paint1_linear_20020_4951)"/>
<path d="M13.0147 6.89912C13.3129 5.56867 14.4939 4.62299 15.8574 4.62299C17.2208 4.62299 18.4019 5.56867 18.7 6.89912L20.6308 15.6699C20.8574 16.4902 21.6482 17.0426 22.4667 17.0995C24.5995 17.248 26.2734 18.8924 26.2734 20.998C26.2734 23.1036 24.5665 24.8105 22.4609 24.8105C22.4073 24.8105 22.3541 24.8094 22.3011 24.8072C21.3317 24.7672 20.2573 25.0611 19.5464 25.7214C18.5788 26.6202 17.2822 27.1699 15.8574 27.1699C14.4325 27.1699 13.1359 26.6202 12.1683 25.7214C11.4575 25.0611 10.383 24.7672 9.41364 24.8072C9.36066 24.8094 9.30737 24.8105 9.25385 24.8105C7.14825 24.8105 5.44135 23.1036 5.44135 20.998C5.44135 18.8924 7.11517 17.248 9.24799 17.0995C10.0665 17.0426 10.8574 16.4902 11.0839 15.6699L13.0147 6.89912Z" fill="url(#paint2_radial_20020_4951)"/>
<path d="M13.0147 6.89912C13.3129 5.56867 14.4939 4.62299 15.8574 4.62299C17.2208 4.62299 18.4019 5.56867 18.7 6.89912L20.6308 15.6699C20.8574 16.4902 21.6482 17.0426 22.4667 17.0995C24.5995 17.248 26.2734 18.8924 26.2734 20.998C26.2734 23.1036 24.5665 24.8105 22.4609 24.8105C22.4073 24.8105 22.3541 24.8094 22.3011 24.8072C21.3317 24.7672 20.2573 25.0611 19.5464 25.7214C18.5788 26.6202 17.2822 27.1699 15.8574 27.1699C14.4325 27.1699 13.1359 26.6202 12.1683 25.7214C11.4575 25.0611 10.383 24.7672 9.41364 24.8072C9.36066 24.8094 9.30737 24.8105 9.25385 24.8105C7.14825 24.8105 5.44135 23.1036 5.44135 20.998C5.44135 18.8924 7.11517 17.248 9.24799 17.0995C10.0665 17.0426 10.8574 16.4902 11.0839 15.6699L13.0147 6.89912Z" fill="url(#paint3_radial_20020_4951)"/>
<path d="M13.0147 6.89912C13.3129 5.56867 14.4939 4.62299 15.8574 4.62299C17.2208 4.62299 18.4019 5.56867 18.7 6.89912L20.6308 15.6699C20.8574 16.4902 21.6482 17.0426 22.4667 17.0995C24.5995 17.248 26.2734 18.8924 26.2734 20.998C26.2734 23.1036 24.5665 24.8105 22.4609 24.8105C22.4073 24.8105 22.3541 24.8094 22.3011 24.8072C21.3317 24.7672 20.2573 25.0611 19.5464 25.7214C18.5788 26.6202 17.2822 27.1699 15.8574 27.1699C14.4325 27.1699 13.1359 26.6202 12.1683 25.7214C11.4575 25.0611 10.383 24.7672 9.41364 24.8072C9.36066 24.8094 9.30737 24.8105 9.25385 24.8105C7.14825 24.8105 5.44135 23.1036 5.44135 20.998C5.44135 18.8924 7.11517 17.248 9.24799 17.0995C10.0665 17.0426 10.8574 16.4902 11.0839 15.6699L13.0147 6.89912Z" fill="url(#paint4_radial_20020_4951)"/>
<path d="M13.0147 6.89912C13.3129 5.56867 14.4939 4.62299 15.8574 4.62299C17.2208 4.62299 18.4019 5.56867 18.7 6.89912L20.6308 15.6699C20.8574 16.4902 21.6482 17.0426 22.4667 17.0995C24.5995 17.248 26.2734 18.8924 26.2734 20.998C26.2734 23.1036 24.5665 24.8105 22.4609 24.8105C22.4073 24.8105 22.3541 24.8094 22.3011 24.8072C21.3317 24.7672 20.2573 25.0611 19.5464 25.7214C18.5788 26.6202 17.2822 27.1699 15.8574 27.1699C14.4325 27.1699 13.1359 26.6202 12.1683 25.7214C11.4575 25.0611 10.383 24.7672 9.41364 24.8072C9.36066 24.8094 9.30737 24.8105 9.25385 24.8105C7.14825 24.8105 5.44135 23.1036 5.44135 20.998C5.44135 18.8924 7.11517 17.248 9.24799 17.0995C10.0665 17.0426 10.8574 16.4902 11.0839 15.6699L13.0147 6.89912Z" fill="url(#paint5_radial_20020_4951)"/>
<path d="M11.2962 25.1559C10.7089 24.8947 10.0394 24.7814 9.41364 24.8072C9.36066 24.8094 9.30737 24.8105 9.25385 24.8105C8.8274 24.8105 8.4173 24.7405 8.03442 24.6113C7.62977 24.4748 7.51374 23.9724 7.85724 23.7187C8.2178 23.4523 8.66372 23.2949 9.14642 23.2949C10.2404 23.2949 11.1454 24.1037 11.2962 25.1559Z" fill="url(#paint6_radial_20020_4951)"/>
<path d="M11.2962 25.1559C10.7089 24.8947 10.0394 24.7814 9.41364 24.8072C9.36066 24.8094 9.30737 24.8105 9.25385 24.8105C8.8274 24.8105 8.4173 24.7405 8.03442 24.6113C7.62977 24.4748 7.51374 23.9724 7.85724 23.7187C8.2178 23.4523 8.66372 23.2949 9.14642 23.2949C10.2404 23.2949 11.1454 24.1037 11.2962 25.1559Z" fill="url(#paint7_radial_20020_4951)"/>
<path d="M23.8576 23.7187C24.2011 23.9724 24.0851 24.4748 23.6804 24.6113C23.2975 24.7405 22.8874 24.8105 22.461 24.8105C22.4075 24.8105 22.3542 24.8094 22.3012 24.8072C21.6754 24.7814 21.0059 24.8947 20.4186 25.1559C20.5694 24.1037 21.4744 23.2949 22.5684 23.2949C23.0511 23.2949 23.497 23.4523 23.8576 23.7187Z" fill="url(#paint8_radial_20020_4951)"/>
<path d="M23.8576 23.7187C24.2011 23.9724 24.0851 24.4748 23.6804 24.6113C23.2975 24.7405 22.8874 24.8105 22.461 24.8105C22.4075 24.8105 22.3542 24.8094 22.3012 24.8072C21.6754 24.7814 21.0059 24.8947 20.4186 25.1559C20.5694 24.1037 21.4744 23.2949 22.5684 23.2949C23.0511 23.2949 23.497 23.4523 23.8576 23.7187Z" fill="url(#paint9_radial_20020_4951)"/>
<g filter="url(#filter1_f_20020_4951)">
<path d="M15.5102 19.6654L15.9889 7.0612C16.0091 6.52941 16.5446 6.1739 17.0425 6.36172C17.2931 6.45625 17.4776 6.67286 17.5311 6.93531L20.0475 19.295C20.3368 20.7157 19.251 22.0449 17.8011 22.0449C16.5008 22.0449 15.4609 20.9647 15.5102 19.6654Z" fill="url(#paint10_linear_20020_4951)"/>
</g>
<g filter="url(#filter2_f_20020_4951)">
<path d="M23.2588 21.8886H18.9199C18.5402 21.8886 18.2324 21.5808 18.2324 21.2011C18.2324 20.8214 18.5402 20.5136 18.9199 20.5136H21.7953C22.4399 20.5136 22.9319 19.9374 22.8308 19.3008C22.7243 18.6296 23.2966 18.0162 23.9064 18.3161C24.5679 18.6415 24.9777 19.1596 25.2178 19.7232C25.7162 20.8933 24.5306 21.8886 23.2588 21.8886Z" fill="url(#paint11_linear_20020_4951)"/>
</g>
<g filter="url(#filter3_f_20020_4951)">
<path d="M10.7214 18.8395L10.3796 22.049C10.3173 22.634 9.75335 23.0408 9.25085 22.7348C8.26596 22.1353 7.51271 21.0049 7.70116 19.7324C7.86515 18.6249 8.92754 18.093 9.84382 17.9142C10.3811 17.8094 10.7794 18.2951 10.7214 18.8395Z" fill="#B68B78"/>
</g>
<defs>
<filter id="filter0_i_20020_4951" x="5.44135" y="4.62299" width="21.082" height="22.7969" filterUnits="userSpaceOnUse" color-interpolation-filters="sRGB">
<feFlood flood-opacity="0" result="BackgroundImageFix"/>
<feBlend mode="normal" in="SourceGraphic" in2="BackgroundImageFix" result="shape"/>
<feColorMatrix in="SourceAlpha" type="matrix" values="0 0 0 0 0 0 0 0 0 0 0 0 0 0 0 0 0 0 127 0" result="hardAlpha"/>
<feOffset dx="0.25" dy="0.25"/>
<feGaussianBlur stdDeviation="1"/>
<feComposite in2="hardAlpha" operator="arithmetic" k2="-1" k3="1"/>
<feColorMatrix type="matrix" values="0 0 0 0 0.54902 0 0 0 0 0.439216 0 0 0 0 0.364706 0 0 0 1 0"/>
<feBlend mode="normal" in2="shape" result="effect1_innerShadow_20020_4951"/>
</filter>
<filter id="filter1_f_20020_4951" x="13.0085" y="3.81094" width="9.58582" height="20.7339" filterUnits="userSpaceOnUse" color-interpolation-filters="sRGB">
<feFlood flood-opacity="0" result="BackgroundImageFix"/>
<feBlend mode="normal" in="SourceGraphic" in2="BackgroundImageFix" result="shape"/>
<feGaussianBlur stdDeviation="1.25" result="effect1_foregroundBlur_20020_4951"/>
</filter>
<filter id="filter2_f_20020_4951" x="17.2324" y="17.2379" width="9.10187" height="5.65067" filterUnits="userSpaceOnUse" color-interpolation-filters="sRGB">
<feFlood flood-opacity="0" result="BackgroundImageFix"/>
<feBlend mode="normal" in="SourceGraphic" in2="BackgroundImageFix" result="shape"/>
<feGaussianBlur stdDeviation="0.5" result="effect1_foregroundBlur_20020_4951"/>
</filter>
<filter id="filter3_f_20020_4951" x="5.67212" y="15.8999" width="7.05487" height="8.93951" filterUnits="userSpaceOnUse" color-interpolation-filters="sRGB">
<feFlood flood-opacity="0" result="BackgroundImageFix"/>
<feBlend mode="normal" in="SourceGraphic" in2="BackgroundImageFix" result="shape"/>
<feGaussianBlur stdDeviation="1" result="effect1_foregroundBlur_20020_4951"/>
</filter>
<linearGradient id="paint0_linear_20020_4951" x1="15.8574" y1="12.5643" x2="15.8574" y2="28.1699" gradientUnits="userSpaceOnUse">
<stop stop-color="#B68E73"/>
<stop offset="1" stop-color="#9F7768"/>
</linearGradient>
<linearGradient id="paint1_linear_20020_4951" x1="22.6699" y1="13.8574" x2="15.8574" y2="16.3624" gradientUnits="userSpaceOnUse">
<stop stop-color="#CAA487"/>
<stop offset="1" stop-color="#CAA487" stop-opacity="0"/>
</linearGradient>
<radialGradient id="paint2_radial_20020_4951" cx="0" cy="0" r="1" gradientUnits="userSpaceOnUse" gradientTransform="translate(14.3454 26.4465) rotate(-90) scale(6.46491 8.5603)">
<stop stop-color="#995683"/>
<stop offset="1" stop-color="#995683" stop-opacity="0"/>
</radialGradient>
<radialGradient id="paint3_radial_20020_4951" cx="0" cy="0" r="1" gradientUnits="userSpaceOnUse" gradientTransform="translate(22.3624 24.7433) rotate(-91.2731) scale(2.15998 3.02294)">
<stop stop-color="#985B7B"/>
<stop offset="1" stop-color="#985B7B" stop-opacity="0"/>
</radialGradient>
<radialGradient id="paint4_radial_20020_4951" cx="0" cy="0" r="1" gradientUnits="userSpaceOnUse" gradientTransform="translate(9.32576 25.1432) rotate(-75.1546) scale(2.74701 3.38784)">
<stop stop-color="#93557E"/>
<stop offset="1" stop-color="#93557E" stop-opacity="0"/>
</radialGradient>
<radialGradient id="paint5_radial_20020_4951" cx="0" cy="0" r="1" gradientUnits="userSpaceOnUse" gradientTransform="translate(11.9214 7.14546) rotate(7.90769) scale(2.50834 10.5863)">
<stop stop-color="#8B6E59"/>
<stop offset="1" stop-color="#8B6E59" stop-opacity="0"/>
</radialGradient>
<radialGradient id="paint6_radial_20020_4951" cx="0" cy="0" r="1" gradientUnits="userSpaceOnUse" gradientTransform="translate(10.9199 25.1559) rotate(-140.157) scale(1.79817 1.04812)">
<stop stop-color="#77535C"/>
<stop offset="1" stop-color="#6F3B60"/>
</radialGradient>
<radialGradient id="paint7_radial_20020_4951" cx="0" cy="0" r="1" gradientUnits="userSpaceOnUse" gradientTransform="translate(9.48071 25.3574) rotate(-103.938) scale(2.20556 3.79711)">
<stop offset="0.652848" stop-color="#7D4D73" stop-opacity="0"/>
<stop offset="1" stop-color="#7D4D73"/>
</radialGradient>
<radialGradient id="paint8_radial_20020_4951" cx="0" cy="0" r="1" gradientUnits="userSpaceOnUse" gradientTransform="translate(20.7636 25.0761) rotate(-29.8149) scale(2.15659 1.98282)">
<stop stop-color="#77535C"/>
<stop offset="1" stop-color="#6F3B60"/>
</radialGradient>
<radialGradient id="paint9_radial_20020_4951" cx="0" cy="0" r="1" gradientUnits="userSpaceOnUse" gradientTransform="translate(22.5762 25.3574) rotate(-103.938) scale(2.20556 3.79711)">
<stop offset="0.652848" stop-color="#7D4D73" stop-opacity="0"/>
<stop offset="1" stop-color="#7D4D73"/>
</radialGradient>
<linearGradient id="paint10_linear_20020_4951" x1="19.1269" y1="20.4363" x2="18.2694" y2="6.23236" gradientUnits="userSpaceOnUse">
<stop stop-color="#D3A990"/>
<stop offset="1" stop-color="#D3A990" stop-opacity="0"/>
</linearGradient>
<linearGradient id="paint11_linear_20020_4951" x1="25.5136" y1="20.6699" x2="19.9284" y2="18.7888" gradientUnits="userSpaceOnUse">
<stop stop-color="#D3A990"/>
<stop offset="1" stop-color="#D3A990" stop-opacity="0"/>
</linearGradient>
</defs>
</svg>

<svg width="32" height="32" fill="none" xmlns="http://www.w3.org/2000/svg"><g filter="url(#a)"><path d="M13.015 6.9a2.913 2.913 0 0 1 5.685 0l1.93 8.77c.227.82 1.018 1.373 1.837 1.43 2.133.148 3.806 1.792 3.806 3.898a3.812 3.812 0 0 1-3.972 3.81c-.97-.04-2.044.253-2.755.913a5.403 5.403 0 0 1-3.689 1.449 5.403 5.403 0 0 1-3.689-1.449c-.71-.66-1.785-.954-2.754-.914a3.812 3.812 0 0 1-3.972-3.81c0-2.105 1.673-3.749 3.806-3.898.819-.056 1.61-.609 1.836-1.43l1.93-8.77Z" fill="url(#b)"/></g><path d="M13.015 6.9a2.913 2.913 0 0 1 5.685 0l1.93 8.77c.227.82 1.018 1.373 1.837 1.43 2.133.148 3.806 1.792 3.806 3.898a3.812 3.812 0 0 1-3.972 3.81c-.97-.04-2.044.253-2.755.913a5.403 5.403 0 0 1-3.689 1.449 5.403 5.403 0 0 1-3.689-1.449c-.71-.66-1.785-.954-2.754-.914a3.812 3.812 0 0 1-3.972-3.81c0-2.105 1.673-3.749 3.806-3.898.819-.056 1.61-.609 1.836-1.43l1.93-8.77Z" fill="url(#c)"/><path d="M13.015 6.9a2.913 2.913 0 0 1 5.685 0l1.93 8.77c.227.82 1.018 1.373 1.837 1.43 2.133.148 3.806 1.792 3.806 3.898a3.812 3.812 0 0 1-3.972 3.81c-.97-.04-2.044.253-2.755.913a5.403 5.403 0 0 1-3.689 1.449 5.403 5.403 0 0 1-3.689-1.449c-.71-.66-1.785-.954-2.754-.914a3.812 3.812 0 0 1-3.972-3.81c0-2.105 1.673-3.749 3.806-3.898.819-.056 1.61-.609 1.836-1.43l1.93-8.77Z" fill="url(#d)"/><path d="M13.015 6.9a2.913 2.913 0 0 1 5.685 0l1.93 8.77c.227.82 1.018 1.373 1.837 1.43 2.133.148 3.806 1.792 3.806 3.898a3.812 3.812 0 0 1-3.972 3.81c-.97-.04-2.044.253-2.755.913a5.403 5.403 0 0 1-3.689 1.449 5.403 5.403 0 0 1-3.689-1.449c-.71-.66-1.785-.954-2.754-.914a3.812 3.812 0 0 1-3.972-3.81c0-2.105 1.673-3.749 3.806-3.898.819-.056 1.61-.609 1.836-1.43l1.93-8.77Z" fill="url(#e)"/><path d="M13.015 6.9a2.913 2.913 0 0 1 5.685 0l1.93 8.77c.227.82 1.018 1.373 1.837 1.43 2.133.148 3.806 1.792 3.806 3.898a3.812 3.812 0 0 1-3.972 3.81c-.97-.04-2.044.253-2.755.913a5.403 5.403 0 0 1-3.689 1.449 5.403 5.403 0 0 1-3.689-1.449c-.71-.66-1.785-.954-2.754-.914a3.812 3.812 0 0 1-3.972-3.81c0-2.105 1.673-3.749 3.806-3.898.819-.056 1.61-.609 1.836-1.43l1.93-8.77Z" fill="url(#f)"/><path d="M13.015 6.9a2.913 2.913 0 0 1 5.685 0l1.93 8.77c.227.82 1.018 1.373 1.837 1.43 2.133.148 3.806 1.792 3.806 3.898a3.812 3.812 0 0 1-3.972 3.81c-.97-.04-2.044.253-2.755.913a5.403 5.403 0 0 1-3.689 1.449 5.403 5.403 0 0 1-3.689-1.449c-.71-.66-1.785-.954-2.754-.914a3.812 3.812 0 0 1-3.972-3.81c0-2.105 1.673-3.749 3.806-3.898.819-.056 1.61-.609 1.836-1.43l1.93-8.77Z" fill="url(#g)"/><path d="M11.296 25.156a4.279 4.279 0 0 0-1.882-.349 3.852 3.852 0 0 1-1.38-.196c-.404-.136-.52-.639-.177-.892a2.172 2.172 0 0 1 3.439 1.437Z" fill="url(#h)"/><path d="M11.296 25.156a4.279 4.279 0 0 0-1.882-.349 3.852 3.852 0 0 1-1.38-.196c-.404-.136-.52-.639-.177-.892a2.172 2.172 0 0 1 3.439 1.437Z" fill="url(#i)"/><path d="M23.858 23.719c.343.253.227.756-.178.892a3.807 3.807 0 0 1-1.379.196 4.28 4.28 0 0 0-1.882.349 2.172 2.172 0 0 1 3.439-1.437Z" fill="url(#j)"/><path d="M23.858 23.719c.343.253.227.756-.178.892a3.807 3.807 0 0 1-1.379.196 4.28 4.28 0 0 0-1.882.349 2.172 2.172 0 0 1 3.439-1.437Z" fill="url(#k)"/><g filter="url(#l)"><path d="m15.51 19.665.479-12.604a.78.78 0 0 1 1.542-.126l2.517 12.36a2.293 2.293 0 1 1-4.538.37Z" fill="url(#m)"/></g><g filter="url(#n)"><path d="M23.259 21.889h-4.34a.687.687 0 1 1 0-1.375h2.876c.645 0 1.137-.577 1.036-1.213-.107-.671.466-1.285 1.075-.985a2.704 2.704 0 0 1 1.312 1.407c.498 1.17-.687 2.166-1.96 2.166Z" fill="url(#o)"/></g><g filter="url(#p)"><path d="m10.721 18.84-.341 3.209c-.063.585-.627.992-1.13.686-.984-.6-1.737-1.73-1.549-3.003.164-1.107 1.227-1.639 2.143-1.818.537-.105.935.381.877.925Z" fill="#B68B78"/></g><defs><radialGradient id="d" cx="0" cy="0" r="1" gradientUnits="userSpaceOnUse" gradientTransform="matrix(0 -6.46491 8.5603 0 14.345 26.447)"><stop stop-color="#995683"/><stop offset="1" stop-color="#995683" stop-opacity="0"/></radialGradient><radialGradient id="e" cx="0" cy="0" r="1" gradientUnits="userSpaceOnUse" gradientTransform="rotate(-91.273 23.281 1.436) scale(2.15998 3.02294)"><stop stop-color="#985B7B"/><stop offset="1" stop-color="#985B7B" stop-opacity="0"/></radialGradient><radialGradient id="f" cx="0" cy="0" r="1" gradientUnits="userSpaceOnUse" gradientTransform="rotate(-75.155 21 6.512) scale(2.74701 3.38784)"><stop stop-color="#93557E"/><stop offset="1" stop-color="#93557E" stop-opacity="0"/></radialGradient><radialGradient id="g" cx="0" cy="0" r="1" gradientUnits="userSpaceOnUse" gradientTransform="matrix(2.48449 .3451 -1.45644 10.48563 11.921 7.145)"><stop stop-color="#8B6E59"/><stop offset="1" stop-color="#8B6E59" stop-opacity="0"/></radialGradient><radialGradient id="h" cx="0" cy="0" r="1" gradientUnits="userSpaceOnUse" gradientTransform="matrix(-1.38064 -1.15206 .67152 -.80475 10.92 25.156)"><stop stop-color="#77535C"/><stop offset="1" stop-color="#6F3B60"/></radialGradient><radialGradient id="i" cx="0" cy="0" r="1" gradientUnits="userSpaceOnUse" gradientTransform="rotate(-103.938 14.657 8.971) scale(2.20556 3.79711)"><stop offset=".653" stop-color="#7D4D73" stop-opacity="0"/><stop offset="1" stop-color="#7D4D73"/></radialGradient><radialGradient id="j" cx="0" cy="0" r="1" gradientUnits="userSpaceOnUse" gradientTransform="matrix(1.87114 -1.07226 .98586 1.72037 20.764 25.076)"><stop stop-color="#77535C"/><stop offset="1" stop-color="#6F3B60"/></radialGradient><radialGradient id="k" cx="0" cy="0" r="1" gradientUnits="userSpaceOnUse" gradientTransform="rotate(-103.938 21.205 3.85) scale(2.20556 3.79711)"><stop offset=".653" stop-color="#7D4D73" stop-opacity="0"/><stop offset="1" stop-color="#7D4D73"/></radialGradient><linearGradient id="b" x1="15.857" y1="12.564" x2="15.857" y2="28.17" gradientUnits="userSpaceOnUse"><stop stop-color="#B68E73"/><stop offset="1" stop-color="#9F7768"/></linearGradient><linearGradient id="c" x1="22.67" y1="13.857" x2="15.857" y2="16.362" gradientUnits="userSpaceOnUse"><stop stop-color="#CAA487"/><stop offset="1" stop-color="#CAA487" stop-opacity="0"/></linearGradient><linearGradient id="m" x1="19.127" y1="20.436" x2="18.269" y2="6.232" gradientUnits="userSpaceOnUse"><stop stop-color="#D3A990"/><stop offset="1" stop-color="#D3A990" stop-opacity="0"/></linearGradient><linearGradient id="o" x1="25.514" y1="20.67" x2="19.928" y2="18.789" gradientUnits="userSpaceOnUse"><stop stop-color="#D3A990"/><stop offset="1" stop-color="#D3A990" stop-opacity="0"/></linearGradient><filter id="a" x="5.441" y="4.623" width="21.082" height="22.797" filterUnits="userSpaceOnUse" color-interpolation-filters="sRGB"><feFlood flood-opacity="0" result="BackgroundImageFix"/><feBlend in="SourceGraphic" in2="BackgroundImageFix" result="shape"/><feColorMatrix in="SourceAlpha" values="0 0 0 0 0 0 0 0 0 0 0 0 0 0 0 0 0 0 127 0" result="hardAlpha"/><feOffset dx=".25" dy=".25"/><feGaussianBlur stdDeviation="1"/><feComposite in2="hardAlpha" operator="arithmetic" k2="-1" k3="1"/><feColorMatrix values="0 0 0 0 0.54902 0 0 0 0 0.439216 0 0 0 0 0.364706 0 0 0 1 0"/><feBlend in2="shape" result="effect1_innerShadow_20020_4951"/></filter><filter id="l" x="13.008" y="3.811" width="9.586" height="20.734" filterUnits="userSpaceOnUse" color-interpolation-filters="sRGB"><feFlood flood-opacity="0" result="BackgroundImageFix"/><feBlend in="SourceGraphic" in2="BackgroundImageFix" result="shape"/><feGaussianBlur stdDeviation="1.25" result="effect1_foregroundBlur_20020_4951"/></filter><filter id="n" x="17.232" y="17.238" width="9.102" height="5.651" filterUnits="userSpaceOnUse" color-interpolation-filters="sRGB"><feFlood flood-opacity="0" result="BackgroundImageFix"/><feBlend in="SourceGraphic" in2="BackgroundImageFix" result="shape"/><feGaussianBlur stdDeviation=".5" result="effect1_foregroundBlur_20020_4951"/></filter><filter id="p" x="5.672" y="15.9" width="7.055" height="8.94" filterUnits="userSpaceOnUse" color-interpolation-filters="sRGB"><feFlood flood-opacity="0" result="BackgroundImageFix"/><feBlend in="SourceGraphic" in2="BackgroundImageFix" result="shape"/><feGaussianBlur stdDeviation="1" result="effect1_foregroundBlur_20020_4951"/></filter></defs></svg>
